app/dist/common/images/privia-health.svg

<svg height="18" viewBox="0 0 18 18" width="18" xmlns="http://www.w3.org/2000/svg"><path d="m0 0h18v18h-18z" fill="#1a988c"/><path d="m4 10v.55c0 1.9 1.54 3.45 3.45 3.45h.55l-.86-.45a6.32 6.32 0 0 1 -2.7-2.69zm6 4h.55c1.9 0 3.45-1.54 3.45-3.45v-.55l-.45.86a6.32 6.32 0 0 1 -2.69 2.7zm4-6v-.55c0-1.9-1.54-3.45-3.45-3.45h-.55l.86.45a6.32 6.32 0 0 1 2.7 2.69zm-6-4h-.55a3.45 3.45 0 0 0 -3.45 3.45v.55l.45-.86a6.32 6.32 0 0 1 2.69-2.7z" fill="#cfd532"/></svg>

<!-- by TradingView --><svg width="18" height="18" viewBox="0 0 18 18" xmlns="http://www.w3.org/2000/svg"><path fill="#1A988C" d="M0 0h18v18H0z"/><path d="M4 10v.55C4 12.45 5.54 14 7.45 14H8l-.86-.45a6.32 6.32 0 0 1-2.7-2.69L4 10ZM10 14h.55c1.9 0 3.45-1.54 3.45-3.45V10l-.45.86a6.32 6.32 0 0 1-2.69 2.7L10 14ZM14 8v-.55C14 5.55 12.46 4 10.55 4H10l.86.45a6.32 6.32 0 0 1 2.7 2.69L14 8ZM8 4h-.55A3.45 3.45 0 0 0 4 7.45V8l.45-.86a6.32 6.32 0 0 1 2.69-2.7L8 4Z" fill="#CFD532"/></svg>
